packages/ffe-icons/icons/filled/md/floor.svg

<svg xmlns="http://www.w3.org/2000/svg" height="24" viewBox="0 -960 960 960" width="24"><path d="M270.001-149.999v-143.847q0-15.365 10.394-25.759t25.759-10.394h143.847v-143.847q0-15.365 10.394-25.759t25.759-10.394h143.847v-143.847q0-15.365 10.394-25.759t25.759-10.394h143.847V-800q0-12.75 8.628-21.375 8.629-8.624 21.384-8.624 12.756 0 21.371 8.624 8.615 8.625 8.615 21.375v133.846q0 15.365-10.394 25.759t-25.759 10.394H689.999v143.847q0 15.365-10.394 25.759t-25.759 10.394H509.999v143.847q0 15.365-10.394 25.759t-25.759 10.394H329.999v143.847q0 15.365-10.394 25.759t-25.759 10.394H160q-12.75 0-21.374-8.628-8.625-8.629-8.625-21.384 0-12.756 8.625-21.371 8.624-8.615 21.374-8.615h110.001Z"/></svg>

<svg xmlns="http://www.w3.org/2000/svg" height="24" viewBox="0 -960 960 960" width="24"><path d="M270-150v-143.85q0-15.36 10.39-25.76Q290.79-330 306.15-330H450v-143.85q0-15.36 10.39-25.76Q470.79-510 486.15-510H630v-143.85q0-15.36 10.39-25.76Q650.79-690 666.15-690H810v-110q0-12.75 8.63-21.37 8.63-8.63 21.38-8.63 12.76 0 21.37 8.63Q870-812.75 870-800v133.85q0 15.36-10.39 25.76Q849.21-630 833.85-630H690v143.85q0 15.36-10.39 25.76Q669.21-450 653.85-450H510v143.85q0 15.36-10.39 25.76Q489.21-270 473.85-270H330v143.85q0 15.36-10.39 25.76Q309.21-90 293.85-90H160q-12.75 0-21.37-8.63-8.63-8.63-8.63-21.38 0-12.76 8.63-21.37Q147.25-150 160-150h110Z"/></svg>
